X: 25892
T: Matt Peoples'
R: reel
M: 4/4
K: Eminor
^D|E2 BE GEBE|F2 dF FEDF|E2 BE GEBE|FEDF E3^D|
E2 BE GEBE|F2 dF FEDF|E2 BE GEBE|FEDF E3||
^d|eB B2 edBc|dF F2 d3 ^d|eB B2 edBc|(3dcB AF FEE^d|
eB B2 edBc|dF F2 d3 ^d|ecdB cABc|(3dcB AF FEDF||

